X:1
T: Dunira Lodge
C:M. Stirling
R:Strathspey
Q: 128
K:D
M:4/4
L:1/16
|:D2|FA3 A3B A2F2 d3B|A3F E3D B,3E E3G|DFA2 A3B A3F d3B|A2F2 E2D2 A,2D2 D2D2|
FA3 A3B A2F2 d3B|A3F E3D B,3E E3G|DFA2 A3B A3F d3B|A2F2 E2D2 A,2D2 D2d2|
A3d f3d A2d2 f2df|a3b a3g fe3 e3f|A3d f3d A2d2 f2df|a^gab a3=g fd3 d3f|
A3d f3d A2d2 f2df|a3b a3g fe3 e3a1/2g1/2|fa3 e2f2 d3B d3B|A3F E3D A,2D2 D2:|
